synths/sTSLA.svg

<svg width="42" height="42" viewBox="0 0 42 42" fill="none" xmlns="http://www.w3.org/2000/svg">
<g clip-path="url(#clip0_7277_57832)">
<mask id="mask0_7277_57832" style="mask-type:alpha" maskUnits="userSpaceOnUse" x="0" y="0" width="42" height="42">
<circle cx="21" cy="21" r="21" fill="url(#paint0_linear_7277_57832)"/>
</mask>
<g mask="url(#mask0_7277_57832)">
<circle cx="21" cy="21" r="21" fill="#34EDB3"/>
<circle cx="21" cy="21" r="18.2" fill="white"/>
</g>
<circle cx="21" cy="21" r="16.1" fill="#06061B"/>
<circle cx="21" cy="21" r="16.1" fill="#06061B"/>
<path d="M21.0922 16.4347L23.1847 13.8751C25.8064 14.0181 28.2481 14.6432 30.4716 15.6641L30.3473 15.6125C29.6473 16.5244 28.7241 17.2324 27.6588 17.6595L27.6157 17.6748C27.4922 16.4576 26.64 16.1607 23.9346 16.1607L21.0931 32.2L18.2346 16.1573C15.5461 16.1573 14.6939 16.4567 14.5696 17.6731C13.4621 17.2341 12.5397 16.5295 11.8507 15.6354L11.8397 15.621C13.9372 14.6499 16.3789 14.0232 18.949 13.881L19.0006 13.8785L21.0931 16.4347H21.0922ZM21.0922 13.1358C21.1827 13.1341 21.2892 13.1341 21.3957 13.1341C24.7496 13.1341 27.9378 13.8447 30.8174 15.1236L30.6694 15.0653C30.8698 14.732 31.0609 14.3437 31.219 13.9394L31.2376 13.8861C28.2354 12.6486 24.7522 11.9212 21.1007 11.9H21.0922C17.4331 11.9203 13.9491 12.6478 10.7626 13.9538L10.9469 13.887C11.1363 14.3564 11.3265 14.7455 11.5412 15.1202L11.515 15.0712C14.2526 13.8464 17.4475 13.1333 20.8098 13.1333C20.9096 13.1333 21.0085 13.1341 21.1074 13.135H21.0922V13.1358Z" fill="white"/>
</g>
<defs>
<linearGradient id="paint0_linear_7277_57832" x1="21" y1="0" x2="21" y2="61.4091" gradientUnits="userSpaceOnUse">
<stop stop-color="#08021E"/>
<stop offset="1" stop-color="#1F0777"/>
</linearGradient>
<clipPath id="clip0_7277_57832">
<rect width="42" height="42" fill="white"/>
</clipPath>
</defs>
</svg>

<svg xmlns="http://www.w3.org/2000/svg" width="42" height="42" fill="none"><g clip-path="url(#a)"><mask id="c" width="42" height="42" x="0" y="0" maskUnits="userSpaceOnUse" style="mask-type:alpha"><circle cx="21" cy="21" r="21" fill="url(#b)"/></mask><g mask="url(#c)"><circle cx="21" cy="21" r="21" fill="#34EDB3"/><circle cx="21" cy="21" r="18.2" fill="#fff"/></g><circle cx="21" cy="21" r="16.1" fill="#06061B"/><circle cx="21" cy="21" r="16.1" fill="#06061B"/><path fill="#fff" d="m21.092 16.435 2.093-2.56c2.621.143 5.063.768 7.287 1.79l-.125-.052a6.384 6.384 0 0 1-2.688 2.047l-.043.015c-.124-1.217-.976-1.514-3.681-1.514L21.093 32.2l-2.858-16.043c-2.689 0-3.541.3-3.665 1.516a6.37 6.37 0 0 1-2.72-2.038l-.01-.014c2.097-.971 4.539-1.598 7.109-1.74l.052-.002 2.092 2.556Zm0-3.3h.304c3.354 0 6.542.71 9.421 1.989l-.148-.059c.2-.333.392-.721.55-1.126l.019-.053C28.235 12.65 24.752 11.921 21.1 11.9h-.009a27.57 27.57 0 0 0-10.33 2.054l.185-.067c.19.47.38.858.594 1.233l-.026-.049c2.738-1.225 5.933-1.938 9.295-1.938l.297.002h-.015Z"/></g><defs><linearGradient id="b" x1="21" x2="21" y1="0" y2="61.409" gradientUnits="userSpaceOnUse"><stop stop-color="#08021E"/><stop offset="1" stop-color="#1F0777"/></linearGradient><clipPath id="a"><path fill="#fff" d="M0 0h42v42H0z"/></clipPath></defs></svg>
